X:1
T:La ziguezon zin zon
C:trad. Québec, joué par la Bottine Souriante, fichier abc : Bernard Loffet
L:1/8
Q:376
K:C
M:2/2
 z6A2 | [AA,,]B[cA,]B [A2A,,2][e2A,2] | [eA,,]d[cA,]d [eC,,]A[BC,]c | [d2G,,2][d2G,2] [B2G,,2][A2G,2] | \
 [AA,,]B[cA,]B [A2A,,2][e2A,2] | [eA,,]d[cA,]d [eC,,]A[BC,]c | [d2G,,2][d2G,2] [B2G,,2]G,B | \
 [BG,,]B[BG,]B [c2A,,2][A2A,2] | [BG,,]B[BG,]B [cA,,]A[AA,]A | [B2G,,2][B2G,2] [c2A,,2][AA,]A | \
 [B2G,,2][BG,]B [c2A,,2][AA,]A | [BG,,]B[BG,]B [cA,,]A[AA,]A | [B2G,,2][B2G,2] [cA,,]A[AA,]A | \
 [B2G,,2][B2G,2] [c2A,,2]A,2 |: [AA,,]A[AA,]A [c2A,,2][AA,]A | [A2A,,2][AA,]A [G2G,,2]G,2 | \
 [BG,,]B[BG,]B [d2E,,2][BE,]B | [c2E,,2][BE,]B A,,AA,2 :| \
W:Created with TablEdit http://www.tabledit.com/ by Bernard Loffet
